Newaita-dark/emblems/48/vcs-locally-modified-unstaged.svg

<svg height="48" viewBox="0 0 48 48" width="48" xmlns="http://www.w3.org/2000/svg"><g fill="#fafafa"><g stroke="#f44336" stroke-linecap="round" stroke-linejoin="round" stroke-width="82" transform="matrix(.093759 0 0 -.093759 0 29.213707)"><path d="m252.642541.654481h2.749737c10.915624 0 19.789777 9.499093 19.789777 21.164646v190.523472c0 11.665553-8.874153 21.164646-19.789777 21.164646h-2.749737c-10.957287 0-19.789777-9.499093-19.789777-21.164646v-190.523472c0-11.665553 8.83249-21.164646 19.789777-21.164646zm0 0"/><path d="m254.017409.654481c11.665553 0 21.164646 9.499093 21.164646 21.164646v190.523472c0 11.665553-9.499093 21.164646-21.164646 21.164646-11.707215 0-21.164645-9.499093-21.164645-21.164646v-190.523472c0-11.665553 9.45743-21.164646 21.164645-21.164646zm0 0"/><path d="m254.017409-136.915715c11.665553 0 21.164646 9.45743 21.164646 21.164646 0 11.707215-9.499093 21.164645-21.164646 21.164645-11.707215 0-21.164645-9.45743-21.164645-21.164645 0-11.707216 9.45743-21.164646 21.164645-21.164646zm0 0"/><path d="m253.267481-136.915715h1.458194c11.290588 0 20.45638 9.165791 20.45638 20.498043v1.333206c0 11.332251-9.165792 20.498042-20.45638 20.498042h-1.458194c-11.290589 0-20.414717-9.165791-20.414717-20.498042v-1.333206c0-11.332252 9.124128-20.498043 20.414717-20.498043zm0 0"/></g><path d="m23.6875 29.152344h.257812c1.023438 0 1.855469-.890625 1.855469-1.984375v-17.863281c0-1.09375-.832031-1.984376-1.855469-1.984376h-.257812c-1.027344 0-1.855469.890626-1.855469 1.984376v17.863281c0 1.09375.828125 1.984375 1.855469 1.984375zm0 0"/><path d="m23.816406 29.152344c1.09375 0 1.984375-.890625 1.984375-1.984375v-17.863281c0-1.09375-.890625-1.984376-1.984375-1.984376-1.097656 0-1.984375.890626-1.984375 1.984376v17.863281c0 1.09375.886719 1.984375 1.984375 1.984375zm0 0"/><path d="m23.816406 42.050781c1.09375 0 1.984375-.886719 1.984375-1.984375s-.890625-1.984375-1.984375-1.984375c-1.097656 0-1.984375.886719-1.984375 1.984375s.886719 1.984375 1.984375 1.984375zm0 0"/><path d="m23.746094 42.050781h.136718c1.058594 0 1.917969-.859375 1.917969-1.921875v-.125c0-1.0625-.859375-1.921875-1.917969-1.921875h-.136718c-1.058594 0-1.914063.859375-1.914063 1.921875v.125c0 1.0625.855469 1.921875 1.914063 1.921875zm0 0"/></g></svg>

<?xml version="1.0" encoding="UTF-8"?>
<svg xmlns="http://www.w3.org/2000/svg" xmlns:xlink="http://www.w3.org/1999/xlink" width="48px" height="48px" viewBox="0 0 48 48" version="1.1">
<g id="surface1">
<path style="fill-rule:nonzero;fill:rgb(98.039216%,98.039216%,98.039216%);fill-opacity:1;stroke-width:82;stroke-linecap:round;stroke-linejoin:round;stroke:rgb(95.686275%,26.274511%,21.176471%);stroke-opacity:1;stroke-miterlimit:4;" d="M 252.642541 0.654481 L 255.392278 0.654481 C 266.307902 0.654481 275.182055 10.153574 275.182055 21.819127 L 275.182055 212.342599 C 275.182055 224.008152 266.307902 233.507245 255.392278 233.507245 L 252.642541 233.507245 C 241.685254 233.507245 232.852764 224.008152 232.852764 212.342599 L 232.852764 21.819127 C 232.852764 10.153574 241.685254 0.654481 252.642541 0.654481 Z M 252.642541 0.654481 " transform="matrix(0.093759,0,0,-0.093759,0,29.213707)"/>
<path style="fill-rule:nonzero;fill:rgb(98.039216%,98.039216%,98.039216%);fill-opacity:1;stroke-width:82;stroke-linecap:round;stroke-linejoin:round;stroke:rgb(95.686275%,26.274511%,21.176471%);stroke-opacity:1;stroke-miterlimit:4;" d="M 254.017409 0.654481 C 265.682962 0.654481 275.182055 10.153574 275.182055 21.819127 L 275.182055 212.342599 C 275.182055 224.008152 265.682962 233.507245 254.017409 233.507245 C 242.310194 233.507245 232.852764 224.008152 232.852764 212.342599 L 232.852764 21.819127 C 232.852764 10.153574 242.310194 0.654481 254.017409 0.654481 Z M 254.017409 0.654481 " transform="matrix(0.093759,0,0,-0.093759,0,29.213707)"/>
<path style="fill-rule:nonzero;fill:rgb(98.039216%,98.039216%,98.039216%);fill-opacity:1;stroke-width:82;stroke-linecap:round;stroke-linejoin:round;stroke:rgb(95.686275%,26.274511%,21.176471%);stroke-opacity:1;stroke-miterlimit:4;" d="M 254.017409 -136.915715 C 265.682962 -136.915715 275.182055 -127.458285 275.182055 -115.751069 C 275.182055 -104.043854 265.682962 -94.586424 254.017409 -94.586424 C 242.310194 -94.586424 232.852764 -104.043854 232.852764 -115.751069 C 232.852764 -127.458285 242.310194 -136.915715 254.017409 -136.915715 Z M 254.017409 -136.915715 " transform="matrix(0.093759,0,0,-0.093759,0,29.213707)"/>
<path style="fill-rule:nonzero;fill:rgb(98.039216%,98.039216%,98.039216%);fill-opacity:1;stroke-width:82;stroke-linecap:round;stroke-linejoin:round;stroke:rgb(95.686275%,26.274511%,21.176471%);stroke-opacity:1;stroke-miterlimit:4;" d="M 253.267481 -136.915715 L 254.725675 -136.915715 C 266.016263 -136.915715 275.182055 -127.749924 275.182055 -116.417672 L 275.182055 -115.084466 C 275.182055 -103.752215 266.016263 -94.586424 254.725675 -94.586424 L 253.267481 -94.586424 C 241.976892 -94.586424 232.852764 -103.752215 232.852764 -115.084466 L 232.852764 -116.417672 C 232.852764 -127.749924 241.976892 -136.915715 253.267481 -136.915715 Z M 253.267481 -136.915715 " transform="matrix(0.093759,0,0,-0.093759,0,29.213707)"/>
<path style=" stroke:none;fill-rule:nonzero;fill:rgb(98.039216%,98.039216%,98.039216%);fill-opacity:1;" d="M 23.6875 29.152344 L 23.945312 29.152344 C 24.96875 29.152344 25.800781 28.261719 25.800781 27.167969 L 25.800781 9.304688 C 25.800781 8.210938 24.96875 7.320312 23.945312 7.320312 L 23.6875 7.320312 C 22.660156 7.320312 21.832031 8.210938 21.832031 9.304688 L 21.832031 27.167969 C 21.832031 28.261719 22.660156 29.152344 23.6875 29.152344 Z M 23.6875 29.152344 "/>
<path style=" stroke:none;fill-rule:nonzero;fill:rgb(98.039216%,98.039216%,98.039216%);fill-opacity:1;" d="M 23.816406 29.152344 C 24.910156 29.152344 25.800781 28.261719 25.800781 27.167969 L 25.800781 9.304688 C 25.800781 8.210938 24.910156 7.320312 23.816406 7.320312 C 22.71875 7.320312 21.832031 8.210938 21.832031 9.304688 L 21.832031 27.167969 C 21.832031 28.261719 22.71875 29.152344 23.816406 29.152344 Z M 23.816406 29.152344 "/>
<path style=" stroke:none;fill-rule:nonzero;fill:rgb(98.039216%,98.039216%,98.039216%);fill-opacity:1;" d="M 23.816406 42.050781 C 24.910156 42.050781 25.800781 41.164062 25.800781 40.066406 C 25.800781 38.96875 24.910156 38.082031 23.816406 38.082031 C 22.71875 38.082031 21.832031 38.96875 21.832031 40.066406 C 21.832031 41.164062 22.71875 42.050781 23.816406 42.050781 Z M 23.816406 42.050781 "/>
<path style=" stroke:none;fill-rule:nonzero;fill:rgb(98.039216%,98.039216%,98.039216%);fill-opacity:1;" d="M 23.746094 42.050781 L 23.882812 42.050781 C 24.941406 42.050781 25.800781 41.191406 25.800781 40.128906 L 25.800781 40.003906 C 25.800781 38.941406 24.941406 38.082031 23.882812 38.082031 L 23.746094 38.082031 C 22.6875 38.082031 21.832031 38.941406 21.832031 40.003906 L 21.832031 40.128906 C 21.832031 41.191406 22.6875 42.050781 23.746094 42.050781 Z M 23.746094 42.050781 "/>
</g>
</svg>
